public/images/theurgist.svg

<?xml version="1.0" encoding="UTF-8" standalone="no"?>
<!-- Created with Inkscape (http://www.inkscape.org/) -->

<svg
   width="512"
   height="512"
   viewBox="0 0 135.46666 135.46666"
   version="1.1"
   id="svg1304"
   inkscape:version="1.1 (c68e22c387, 2021-05-23)"
   sodipodi:docname="theurgist.svg"
   xmlns:inkscape="http://www.inkscape.org/namespaces/inkscape"
   xmlns:sodipodi="http://sodipodi.sourceforge.net/DTD/sodipodi-0.dtd"
   xmlns="http://www.w3.org/2000/svg"
   xmlns:svg="http://www.w3.org/2000/svg">
  <sodipodi:namedview
     id="namedview1306"
     pagecolor="#505050"
     bordercolor="#eeeeee"
     borderopacity="1"
     inkscape:pageshadow="0"
     inkscape:pageopacity="0"
     inkscape:pagecheckerboard="0"
     inkscape:document-units="px"
     showgrid="false"
     width="512mm"
     units="px"
     inkscape:zoom="1.3408728"
     inkscape:cx="184.95416"
     inkscape:cy="269.60051"
     inkscape:window-width="1920"
     inkscape:window-height="1017"
     inkscape:window-x="1912"
     inkscape:window-y="-8"
     inkscape:window-maximized="1"
     inkscape:current-layer="layer1" />
  <defs
     id="defs1301">
    <filter
       style="color-interpolation-filters:sRGB;"
       inkscape:label="Colorize"
       id="filter139057"
       x="0"
       y="0"
       width="1"
       height="1">
      <feColorMatrix
         values="0.21 0.72 0.072 0 0 0.21 0.72 0.072 0 0 0.21 0.72 0.072 0 0 0 0 0 1 0 "
         id="feColorMatrix139055"
         result="fbSourceGraphic" />
      <feColorMatrix
         result="fbSourceGraphicAlpha"
         in="fbSourceGraphic"
         values="0 0 0 -1 0 0 0 0 -1 0 0 0 0 -1 0 0 0 0 1 0"
         id="feColorMatrix139265" />
      <feComposite
         in2="fbSourceGraphic"
         id="feComposite139267"
         operator="arithmetic"
         k1="0"
         k2="1"
         result="composite1"
         in="fbSourceGraphic" />
      <feColorMatrix
         id="feColorMatrix139269"
         in="composite1"
         values="1"
         type="saturate"
         result="colormatrix1" />
      <feFlood
         id="feFlood139271"
         flood-opacity="1"
         flood-color="rgb(0,0,0)"
         result="flood1" />
      <feBlend
         in2="colormatrix1"
         id="feBlend139273"
         in="flood1"
         mode="multiply"
         result="blend1" />
      <feBlend
         in2="blend1"
         id="feBlend139275"
         mode="screen"
         result="blend2" />
      <feColorMatrix
         id="feColorMatrix139277"
         in="blend2"
         values="1"
         type="saturate"
         result="colormatrix2" />
      <feComposite
         in2="fbSourceGraphic"
         id="feComposite139279"
         in="colormatrix2"
         operator="in"
         k2="1"
         result="composite2" />
    </filter>
  </defs>
  <g
     inkscape:label="Layer 1"
     inkscape:groupmode="layer"
     id="layer1">
    <path
       style="fill:#000000;stroke-width:0.730978"
       d="M 39.717754,120.37372 C 2.1895102,109.80768 -9.9226265,68.402345 16.698738,41.683208 30.111831,28.220853 53.009342,24.195785 67.739663,32.710916 c 2.300684,1.329954 3.192984,1.552635 3.41102,0.851252 5.885546,-18.93216 26.594254,-25.7585364 41.047777,-13.530906 7.93134,6.709898 11.65687,26.348843 7.14015,37.638903 -1.12235,2.805404 -1.62494,4.943548 -1.19568,5.086637 11.4831,3.827699 18.28101,22.160222 13.27465,35.798973 -6.0203,16.401045 -30.85619,21.585705 -44.472729,9.283985 l -2.831982,-2.55852 -3.420325,3.6566 c -9.330974,9.97556 -27.826818,15.13767 -40.97479,11.43588 z m 21.982251,-9.8907 C 76.978533,105.20937 83.118057,92.396989 77.478602,77.555149 69.204604,55.77975 45.662798,51.922841 34.956304,70.588624 29.058338,80.871185 33.312072,90.404419 44.187647,91.277406 54.359072,92.093874 58.523857,85.61549 55.15883,74.211561 l -1.058824,-3.588326 1.827376,2.192938 C 68.085761,87.406812 63.194763,100.47097 45.618461,100.35192 22.738317,100.19696 15.205205,76.029778 32.622829,58.660284 53.621602,37.719542 88.320107,55.757842 88.372072,87.641983 c 0.02244,13.783007 11.354068,21.372167 24.818368,16.621687 13.63917,-4.812176 14.98576,-24.612965 2.20081,-32.361222 -8.59549,-5.20925 -16.002324,2.408885 -11.25943,11.580628 3.37962,6.535481 12.48817,2.847165 9.96288,-4.03426 l -0.82451,-2.246767 2.12956,2.558427 c 6.63203,7.967653 2.81638,16.736348 -6.931,15.928025 C 93.211302,94.423235 88.084366,73.504544 100.73149,64.119281 112.56771,55.335783 115.22998,47.348198 110.64891,34.36408 104.69562,17.490639 80.318873,20.576475 80.04448,38.238277 l -0.07002,4.505069 3.168993,2.244277 c 10.228863,7.244063 22.818147,0.686786 16.508524,-8.598664 l -1.886373,-2.77605 2.774706,1.756074 c 7.99811,5.0619 7.81217,15.368435 -0.34283,19.001315 C 91.324215,58.32315 81.174793,55.786468 71.552307,47.210903 46.463016,24.851284 10.384394,43.617008 11.748446,78.316953 12.62531,100.62344 39.71886,118.07019 61.700007,110.48302 Z"
       id="path210320" />
  </g>
</svg>

<svg width="512" height="512" viewBox="0 0 135.467 135.467" xmlns="http://www.w3.org/2000/svg"><path style="fill:#000;stroke-width:.730978" d="M39.718 120.374c-37.528-10.566-49.64-51.972-23.02-78.69C30.113 28.22 53.01 24.195 67.74 32.71c2.3 1.33 3.193 1.553 3.41.851 5.886-18.932 26.595-25.758 41.048-13.53 7.932 6.71 11.657 26.348 7.14 37.638-1.122 2.806-1.624 4.944-1.195 5.087 11.483 3.828 18.28 22.16 13.275 35.799-6.02 16.4-30.857 21.585-44.473 9.284l-2.832-2.559-3.42 3.657c-9.331 9.975-27.827 15.138-40.975 11.436zm21.982-9.891c15.279-5.274 21.418-18.086 15.779-32.928-8.274-21.775-31.816-25.632-42.523-6.966-5.898 10.282-1.644 19.815 9.232 20.688 10.171.817 14.336-5.662 10.97-17.065L54.1 70.623l1.827 2.193c12.159 14.59 7.268 27.655-10.309 27.536-22.88-.155-30.413-24.322-12.995-41.692 20.999-20.94 55.697-2.902 55.75 28.982.022 13.783 11.353 21.372 24.817 16.622 13.64-4.813 14.986-24.613 2.201-32.362-8.595-5.209-16.002 2.41-11.26 11.581 3.38 6.536 12.489 2.847 9.964-4.034l-.825-2.247 2.13 2.558c6.632 7.968 2.816 16.737-6.931 15.929-15.258-1.266-20.385-22.184-7.738-31.57 11.837-8.783 14.499-16.77 9.918-29.755-5.953-16.873-30.33-13.788-30.605 3.874l-.07 4.505 3.17 2.245c10.228 7.244 22.818.686 16.508-8.599l-1.886-2.776 2.774 1.756c7.998 5.062 7.812 15.368-.343 19.001-8.873 3.953-19.022 1.416-28.645-7.16-25.089-22.359-61.168-3.593-59.804 31.107.877 22.306 27.97 39.753 49.952 32.166z"/></svg>
